X: 156
T: No_238_Drinking_Song_(b).krn
N: Derived from No_238_Drinking_Song_(b).krn
%%abc-version 2.0
%%abcx-abcm2ps-target-version 5.9.1 (29 Sep 2008)
%%abc-creator hum2abc beta
%%abcx-conversion-date 2019/03/15 08:38:45
%%humdrum-veritas 1823135395
%%humdrum-veritas-data 948768812
%%linebreak <none>
%%barnumbers 0
L: 1/8
M: 3/4
K: A clef=treble
[K:clef=treble][M:3/4]A3/B/A2(3AFE [I:setbarnb 2]||  
[M:2/4]E7/F/ | 
E3/C/!fermata!A,2 | 
(3B,A,E, E, z/ E/ | 
[M:3/8]B,/A,/A, (3B,/A,/E,/ [I:setbarnb 6]||  
[M:2/4]A,7/F,/ ||  
[M:3/4]A,3/G,/ A,/F,/G,z2 ||  
[M:2/4]A,3/A,/ (3A,A,A, :|]  



